X:0499
M:C|
L:1/8
Q:1/2=104
K:D Mixolydian
defe     d2    dB|AFdF     E/E/E E2|defe     d2    dB|AFdF D/D/D D2::
abaf     abaf    |gebe     gebe    |abaf     abaf    |edef d/d/d d2:|

